X:1
T:Cooley’s Reel
L:1/8
M:2/2
I:linebreak $
K:G
V:1 treble nm="Voice" snm="Voice"
V:1
 ED |"Em" EBBA B2 E!arpeggio!B | B2 AB dBAG |"D" FED AD BAD | FED FA BAFD |$"Em" EBBA B2 EB | %6
 B2 AB defa | afef dBAF |"Em" DE FED"Bm" E2 ::$ gf |"Em" eB B2 efgf | eB B2 gedB | (3ABA FA DAFA | %13
 (3ABA F2 E2 DEFf |$ eB B2 efgf | eB B2 defa | afef dBAF |"Em" DE FED"Em" E2 |] %18
